public/avatar/shoe/34.svg

<svg xmlns:xlink="http://www.w3.org/1999/xlink" height="38.3" width="36.05" xmlns="http://www.w3.org/2000/svg"><use height="16.1" transform="translate(9.2 12.4)" width="24" xlink:href="#a"/><defs><g id="a"><path d="M2.4-1.55q1.75.05 4.05 2.9 2.1 2.7 2.2 4.3.1 3.5-5.25 5.6-4.7 1.85-8.65 1.8l-1.5-.05q-4.35-.4-5.7-1.3-1.35-.9-1.1-2.2.15-1.3 1.05-1.4l2.05-2.6q6.35-7.1 12.4-7.05h.45" fill="#ff7b00" fill-rule="evenodd" transform="translate(14.6 2.45)"/><path d="M-1.35 10.15q-3.95 1.2-5.2 1.1-1-.1.85-3.1l3.5-2.3-3.2-.2q-.85.05-2.3 1.8-.4.4-.85 1.85-.3 1.25-.65 1.25l-2.35-.45-1-.7.3-1.8 4.7-5q4.5-4.65 8.4-4.45 5 .35 6.85 5.9.7 1.85.55 2.2-1 1.95-4.45 2.65l-5.15 1.25" fill="#ffddbc" fill-rule="evenodd" transform="translate(14.6 2.45)"/><path d="M8.05 5.15q.25 1.7-3.2 2.95-3.4 1.3-4.3 1.1l-1.3.35m-8.1.7-2.4-.7-1-.7-.3-1.4" fill="none" stroke="#e8c9ac" stroke-linecap="round" stroke-linejoin="round" transform="translate(14.6 2.45)"/><path d="m-13.45 8.15-.45.65q-.4.8 0 1.75 1.35 2.9 9.5 2.55 3.95-.25 11.05-3.55 2.65-1.1 2.15-3.4" fill="none" stroke="#8c4400" stroke-linecap="round" stroke-linejoin="round" transform="translate(14.6 2.45)"/><path d="M8.85 6.3q0-1.15-.7-2.35L5.65.55q-1.6-1.6-4-2.25-2.5-.8-5.2 1.05l-4.7 4.15-4.4 4-.75.65" fill="none" stroke="#000" stroke-linecap="round" stroke-linejoin="round" transform="translate(14.6 2.45)"/><path d="M-.75 9.55q-1.35 1.7-4 1.7t-2.6-.55" fill="none" stroke="#e8c9ac" stroke-linecap="round" stroke-linejoin="round" transform="translate(14.6 2.45)"/><path d="M1.15 5.45q2.75.7 4.65 3.3l-1.75.55q-.85-1.05-2.9-2.2l-4-.25-2.45.6-2.35.1.45-1.2q.6-1.15 0-2.05l-.75-.4 1.05-1.35 1.2.85q.7 1.2.6 2.4l2.05-.5 4.2.15" fill="#ff7b00" fill-rule="evenodd" transform="translate(14.6 2.45)"/></g></defs></svg>

<?xml version="1.0" encoding="UTF-8" standalone="no"?>
<svg xmlns:xlink="http://www.w3.org/1999/xlink" height="38.3px" width="36.05px" xmlns="http://www.w3.org/2000/svg">
  <g transform="matrix(1.0, 0.0, 0.0, 1.0, 23.8, 14.85)">
    <use height="16.1" transform="matrix(1.0, 0.0, 0.0, 1.0, -14.6, -2.45)" width="24.0" xlink:href="#shape0"/>
  </g>
  <defs>
    <g id="shape0" transform="matrix(1.0, 0.0, 0.0, 1.0, 14.6, 2.45)">
      <path d="M2.4 -1.55 Q4.15 -1.5 6.45 1.35 8.55 4.05 8.65 5.65 8.75 9.15 3.4 11.25 -1.3 13.1 -5.25 13.05 L-6.75 13.0 Q-11.1 12.6 -12.45 11.7 -13.8 10.8 -13.55 9.5 -13.4 8.2 -12.5 8.1 L-10.45 5.5 Q-4.1 -1.6 1.95 -1.55 L2.0 -1.55 2.4 -1.55" fill="#ff7b00" fill-rule="evenodd" stroke="none"/>
      <path d="M-1.35 10.15 Q-5.3 11.35 -6.55 11.25 -7.55 11.15 -5.7 8.15 L-2.2 5.85 -5.4 5.65 Q-6.25 5.7 -7.7 7.45 -8.1 7.85 -8.55 9.3 -8.85 10.55 -9.2 10.55 L-11.55 10.1 -12.55 9.4 -12.25 7.6 -7.55 2.6 Q-3.05 -2.05 0.85 -1.85 5.85 -1.5 7.7 4.05 8.4 5.9 8.25 6.25 7.25 8.2 3.8 8.9 L-1.35 10.15" fill="#ffddbc" fill-rule="evenodd" stroke="none"/>
      <path d="M8.05 5.15 Q8.3 6.85 4.85 8.1 1.45 9.4 0.55 9.2 L-0.75 9.55" fill="none" stroke="#e8c9ac" stroke-linecap="round" stroke-linejoin="round" stroke-width="1.0"/>
      <path d="M-8.85 10.25 L-11.25 9.55 -12.25 8.85 -12.55 7.45" fill="none" stroke="#e8c9ac" stroke-linecap="round" stroke-linejoin="round" stroke-width="1.0"/>
      <path d="M-13.45 8.15 L-13.9 8.8 Q-14.3 9.6 -13.9 10.55 -12.55 13.45 -4.4 13.1 -0.45 12.85 6.65 9.55 9.3 8.45 8.8 6.15" fill="none" stroke="#8c4400" stroke-linecap="round" stroke-linejoin="round" stroke-width="1.0"/>
      <path d="M8.85 6.3 Q8.85 5.15 8.15 3.95 L5.65 0.55 Q4.05 -1.05 1.65 -1.7 -0.85 -2.5 -3.55 -0.65 L-8.25 3.5 -12.65 7.5 -13.4 8.15" fill="none" stroke="#000000" stroke-linecap="round" stroke-linejoin="round" stroke-width="1.0"/>
      <path d="M-0.75 9.55 Q-2.1 11.25 -4.75 11.25 -7.4 11.25 -7.35 10.7" fill="none" stroke="#e8c9ac" stroke-linecap="round" stroke-linejoin="round" stroke-width="1.0"/>
      <path d="M1.15 5.45 Q3.9 6.15 5.8 8.75 L4.05 9.3 Q3.2 8.25 1.15 7.1 L-2.85 6.85 -5.3 7.45 -7.65 7.55 -7.2 6.35 Q-6.6 5.2 -7.2 4.3 L-7.95 3.9 -6.9 2.55 -5.7 3.4 Q-5.0 4.6 -5.1 5.8 L-3.05 5.3 1.15 5.45" fill="#ff7b00" fill-rule="evenodd" stroke="none"/>
    </g>
  </defs>
</svg>
